Papirus/symbolic/devices/auth-sim-symbolic.svg

<svg xmlns="http://www.w3.org/2000/svg" width="16" height="16" version="1.1">
 <path style="fill:#444444" d="M4 0C2 0 2 2 2 2v12c0 2 2 2 2 2h8s2 0 2-2V3l-3-3zm1 6l.998.006v2h-2L4 7s0-1 1-1zm6 0c1 0 1 1 1 1l-.002 1.002h-2v-2zm-4.002.006h2v2h-2zm-3 2.996h8V11H12v2c0 1-1 1-1 1l-1.002-.002.002-2.996H3.998zm6.002 2h1.998V11H10zm-6.002 1h2v2L5 14c-1 0-1-1-1-1zm3 0h2v2h-2z"/>
</svg>

<svg xmlns="http://www.w3.org/2000/svg" width="16" height="16" version="1.1">
 <path style="fill:#444444" d="M 4,0 C 2,0 2,2 2,2 V 14 C 2,16 4,16 4,16 H 12 C 12,16 14,16 14,14 V 3 L 11,0 Z M 5,6 5.998,6.006 V 8.006 H 3.998 L 4,7 C 4,7 4,6 5,6 Z M 11,6 C 12,6 12,7 12,7 L 11.998,8.002 H 9.998 V 6.002 Z M 6.998,6.006 H 8.998 V 8.006 H 6.998 Z M 3.998,9.002 H 11.998 V 11 H 12 V 13 C 12,14 11,14 11,14 L 9.998,13.998 10,11.002 H 3.998 Z M 10,11.002 H 11.998 V 11 H 10 Z M 3.998,12.002 H 5.998 V 14.002 L 5,14 C 4,14 4,13 4,13 Z M 6.998,12.002 H 8.998 V 14.002 H 6.998 Z"/>
</svg>
